X:1
T:Title
%%score { ( 1 3 ) | ( 2 4 ) }
L:1/8
M:4/4
K:G
V:1 treble nm="Grand Piano"
V:3 treble 
V:2 bass 
V:4 bass 
V:1
 z4 z[Q:1/4=100] DBA | G6 z2 | B6 z2 | F6 z2 | B6[K:bass][K:treble] z2 | G6 z2 | c6 z2 | d6 z2 | %8
[M:11/16] G/-G/-G/-G/-G/-G/-G/-G-<G |[M:3/8] ddd |[M:4/4] d6 z2 | e6 z2 |[M:5/8] c-c- c3 | %13
[M:3/8] Adc |[M:4/4] B6 z2 | d6 z2 | c6 z2 | d6 z2 |[M:11/16] G/-G/-G/-G/-G/-G/-G/-G-<G |] %19
V:2
 z8 | z [G,B,][G,B,][G,B,] .[G,B,]2 z2 | z G,G,G, .G,2 z2 | z [D,A,][D,A,][D,A,] [D,A,]CB,C | %4
 D6 z2 | z [G,B,][G,B,][G,B,] .[G,B,]2 z2 | z [C,G,][C,G,][C,G,] .[C,G,]2 z2 | %7
 z [D,C][D,C][D,C] [D,C]D,D,D, |[M:11/16] G,,G,,G,,G,,G,,3/2 |[M:3/8][K:treble] BBB | %10
[M:4/4] B6 z2 | c6 z2 |[M:5/8] A-A- A3[K:bass] |[M:3/8][K:treble] DBA | %14
[M:4/4] G6[K:bass][K:treble] z2 | B6[K:bass][K:treble] z2 | E6[K:bass][K:treble] z2 | %17
 F6[K:bass] z2 |[M:11/16] z B,CCB,3/2 |] %19
V:3
 x8 | z DDD DBdc | z DDD DBcA | z CCC CDGA | z[K:bass] G,G,G, G,D[K:treble]BA | z DDD DBAB | %6
 z EEE EcBA | z FFF F[EAc][DGB][CFA] |[M:11/16] B,[B,D][CE][C^D][B,=D]3/2 |[M:3/8] x3 | %10
[M:4/4] z GGG GBcd | z GGG GAAB |[M:5/8] z FF FF |[M:3/8] x3 |[M:4/4] z DDD G,ddd | z DDD DBAB | %16
 z CCC CcBA | z DDD D[Ac][DGB][CDFA] |[M:11/16] [B,D]DEED3/2 |] %19
V:4
 x8 | x8 | x8 | x8 | z G,,G,,G,, .G,,2 z2 | x8 | x8 | x8 |[M:11/16] x11/2 |[M:3/8][K:treble] x3 | %10
[M:4/4] z G,[G,B,][G,D] [G,D]GAB | z CCC CFFG |[M:5/8] z [D,A,][D,D][K:bass] [D,C][D,A,] | %13
[M:3/8][K:treble] x3 |[M:4/4] z G,[K:bass][D,G,][B,,G,] G,,[K:treble]BBB | %15
 z[K:bass] [G,,G,][G,,G,][G,,G,] [G,,G,][K:treble]GF=F | %16
 z[K:bass] [C,G,][C,G,][C,G,] [C,G,]E[K:treble]DG | z[K:bass] [D,C][D,C][D,C] [D,C][D,A,D]D,D, | %18
[M:11/16] G,,/-G,,/-G,,/-G,,/-G,,/-G,,/-G,,/-G,,-<G,, |] %19

